packages/bezier-icons/icons/hexahedron-filled.svg

<svg width="24" height="24" viewBox="0 0 24 24" fill="none" xmlns="http://www.w3.org/2000/svg">
<path fill-rule="evenodd" clip-rule="evenodd" d="M13 2.57734C12.3812 2.22007 11.6188 2.22007 11 2.57734L4 6.61879C3.3812 6.97605 3 7.63631 3 8.35084V16.4337C3 17.1483 3.3812 17.8085 4 18.1658L11 22.2072C11.6188 22.5645 12.3812 22.5645 13 22.2072L20 18.1658C20.6188 17.8085 21 17.1483 21 16.4337V8.35084C21 7.63631 20.6188 6.97605 20 6.61879L13 2.57734ZM10.4935 12.8952C10.8067 13.0728 11.0002 13.405 11.0002 13.765V19.0003C11.0002 19.5526 11.4479 20.0003 12.0002 20.0003C12.5525 20.0003 13.0002 19.5526 13.0002 19.0003V13.7649C13.0002 13.4048 13.1937 13.0726 13.5069 12.895L18.5262 10.0485C19.0103 9.77398 19.177 9.15705 18.8972 8.67606C18.6217 8.20254 18.0164 8.03894 17.5399 8.30919L12.4934 11.1711C12.1874 11.3446 11.8127 11.3446 11.5067 11.1711L6.45537 8.30622C5.97882 8.03595 5.37352 8.19955 5.09801 8.6731C4.81817 9.15408 4.98491 9.77098 5.46894 10.0455L10.4935 12.8952Z" fill="#313234"/>
</svg>

<svg xmlns="http://www.w3.org/2000/svg" width="24" height="24" fill="none" viewBox="0 0 24 24"><path fill="#313234" fill-rule="evenodd" d="M13 2.577a2 2 0 0 0-2 0L4 6.62A2 2 0 0 0 3 8.35v8.083a2 2 0 0 0 1 1.732l7 4.041a2 2 0 0 0 2 0l7-4.041a2 2 0 0 0 1-1.732V8.35a2 2 0 0 0-1-1.732zm-2.507 10.318a1 1 0 0 1 .507.87V19a1 1 0 1 0 2 0v-5.235a1 1 0 0 1 .507-.87l5.02-2.846a1 1 0 0 0-.987-1.74l-5.047 2.862a1 1 0 0 1-.986 0L6.455 8.306a1 1 0 0 0-.986 1.74z" clip-rule="evenodd"/></svg>
